flaticon/essential/user-6.svg

<svg xmlns="http://www.w3.org/2000/svg" width="32" height="32" viewBox="0 0 24 24">
    <path d="M 24 12 C 24 5.382812 18.617188 0 12 0 C 5.382812 0 0 5.382812 0 12 C 0 14.457031 0.742188 16.742188 2.015625 18.648438 L 2.015625 18.65625 L 2.097656 18.777344 C 2.167969 18.882812 2.246094 18.980469 2.320312 19.085938 C 2.351562 19.125 2.382812 19.167969 2.414062 19.210938 C 2.507812 19.335938 2.605469 19.460938 2.707031 19.582031 C 2.734375 19.617188 2.765625 19.652344 2.792969 19.6875 C 3.257812 20.242188 3.765625 20.746094 4.3125 21.203125 C 4.34375 21.230469 4.375 21.257812 4.410156 21.289062 C 4.53125 21.382812 4.648438 21.480469 4.773438 21.570312 C 4.824219 21.609375 4.871094 21.644531 4.921875 21.683594 C 5.039062 21.769531 5.15625 21.851562 5.277344 21.933594 C 5.339844 21.976562 5.40625 22.019531 5.472656 22.0625 C 5.636719 22.167969 5.804688 22.273438 5.976562 22.371094 C 6.097656 22.441406 6.214844 22.511719 6.339844 22.578125 C 6.410156 22.617188 6.488281 22.652344 6.5625 22.691406 C 6.691406 22.757812 6.820312 22.824219 6.953125 22.882812 C 7.019531 22.914062 7.085938 22.945312 7.15625 22.976562 C 7.308594 23.042969 7.464844 23.105469 7.621094 23.167969 C 7.667969 23.1875 7.714844 23.207031 7.765625 23.226562 C 8.195312 23.390625 8.636719 23.527344 9.085938 23.640625 C 9.105469 23.644531 9.121094 23.648438 9.140625 23.652344 C 9.339844 23.703125 9.542969 23.746094 9.746094 23.785156 C 9.796875 23.796875 9.851562 23.804688 9.90625 23.8125 C 9.914062 23.816406 9.921875 23.816406 9.929688 23.816406 L 9.929688 23.824219 L 10.140625 23.855469 C 10.1875 23.863281 10.238281 23.867188 10.285156 23.875 L 10.328125 23.882812 C 10.335938 23.882812 10.34375 23.882812 10.351562 23.882812 C 10.375 23.886719 10.398438 23.890625 10.417969 23.890625 C 10.484375 23.902344 10.550781 23.910156 10.613281 23.917969 C 10.773438 23.9375 10.933594 23.949219 11.09375 23.960938 C 11.128906 23.964844 11.160156 23.96875 11.195312 23.972656 C 11.234375 23.972656 11.273438 23.976562 11.308594 23.980469 C 11.539062 23.992188 11.769531 24 12 24 C 12.230469 24 12.460938 23.992188 12.691406 23.980469 C 12.730469 23.976562 12.769531 23.972656 12.808594 23.972656 C 12.84375 23.96875 12.875 23.964844 12.910156 23.960938 C 13.070312 23.949219 13.226562 23.9375 13.386719 23.917969 C 13.449219 23.910156 13.515625 23.902344 13.582031 23.890625 C 13.609375 23.890625 13.632812 23.886719 13.660156 23.882812 C 13.667969 23.882812 13.675781 23.878906 13.683594 23.878906 L 13.722656 23.875 C 13.769531 23.867188 13.816406 23.863281 13.859375 23.855469 L 14.085938 23.824219 L 14.082031 23.816406 C 14.085938 23.8125 14.089844 23.8125 14.09375 23.8125 C 14.148438 23.804688 14.203125 23.792969 14.253906 23.785156 C 14.457031 23.746094 14.660156 23.703125 14.859375 23.652344 C 14.878906 23.648438 14.894531 23.644531 14.914062 23.640625 C 15.367188 23.527344 15.804688 23.386719 16.234375 23.226562 C 16.285156 23.207031 16.332031 23.1875 16.382812 23.167969 C 16.539062 23.105469 16.691406 23.042969 16.847656 22.972656 C 16.914062 22.945312 16.980469 22.914062 17.046875 22.882812 C 17.179688 22.820312 17.308594 22.757812 17.441406 22.691406 C 17.515625 22.652344 17.589844 22.617188 17.664062 22.578125 C 17.785156 22.511719 17.902344 22.441406 18.023438 22.371094 C 18.195312 22.273438 18.363281 22.167969 18.527344 22.0625 C 18.59375 22.019531 18.660156 21.976562 18.722656 21.933594 C 18.84375 21.851562 18.960938 21.769531 19.078125 21.683594 C 19.128906 21.644531 19.179688 21.609375 19.226562 21.570312 C 19.351562 21.480469 19.472656 21.382812 19.589844 21.285156 C 19.625 21.257812 19.65625 21.230469 19.691406 21.203125 C 20.238281 20.746094 20.746094 20.238281 21.207031 19.6875 C 21.238281 19.652344 21.265625 19.617188 21.292969 19.582031 C 21.394531 19.460938 21.492188 19.335938 21.585938 19.207031 C 21.617188 19.167969 21.648438 19.125 21.679688 19.082031 C 21.753906 18.980469 21.832031 18.882812 21.902344 18.777344 L 21.984375 18.65625 L 21.984375 18.648438 C 23.257812 16.742188 24 14.457031 24 12 Z M 23.199219 12 C 23.199219 13.988281 22.675781 15.855469 21.761719 17.476562 C 21.121094 15.347656 19.234375 13.800781 16.96875 13.621094 L 16.953125 13.601562 L 14.144531 13.601562 C 14.066406 13.601562 14 13.535156 14 13.453125 L 14 13.195312 C 14 13.121094 14.058594 13.074219 14.109375 13.054688 C 16.6875 12.085938 18.292969 8.070312 17.957031 5.261719 C 17.78125 3.796875 17.054688 2.488281 16.003906 1.542969 C 20.207031 3.15625 23.199219 7.234375 23.199219 12 Z M 21.015625 18.636719 C 20.984375 18.679688 20.949219 18.722656 20.917969 18.765625 C 20.828125 18.882812 20.738281 19 20.644531 19.113281 C 20.636719 19.125 20.625 19.136719 20.617188 19.148438 C 20.292969 19.535156 19.941406 19.902344 19.570312 20.246094 C 19.550781 20.265625 19.527344 20.285156 19.503906 20.304688 C 19.394531 20.40625 19.28125 20.503906 19.164062 20.601562 C 19.128906 20.628906 19.09375 20.660156 19.058594 20.6875 C 18.945312 20.78125 18.832031 20.871094 18.71875 20.957031 C 18.679688 20.984375 18.640625 21.011719 18.601562 21.042969 C 18.535156 21.089844 18.46875 21.136719 18.398438 21.183594 L 18.398438 19.199219 L 17.601562 19.199219 L 17.601562 21.691406 C 17.585938 21.703125 17.570312 21.710938 17.554688 21.71875 C 17.449219 21.777344 17.347656 21.835938 17.246094 21.890625 C 17.175781 21.929688 17.101562 21.964844 17.03125 22.003906 C 16.910156 22.0625 16.789062 22.121094 16.664062 22.179688 C 16.605469 22.207031 16.546875 22.234375 16.484375 22.257812 C 16.332031 22.328125 16.175781 22.390625 16.019531 22.453125 C 15.988281 22.464844 15.953125 22.476562 15.921875 22.488281 C 15.523438 22.640625 15.113281 22.765625 14.695312 22.871094 C 14.667969 22.875 14.636719 22.882812 14.605469 22.890625 C 14.433594 22.929688 14.261719 22.96875 14.085938 23 C 14.046875 23.007812 14.003906 23.015625 13.960938 23.023438 L 13.265625 18.398438 L 13.601562 18.398438 L 13.601562 17.414062 L 15.386719 18.605469 L 17.058594 14.433594 C 19.167969 14.671875 20.867188 16.300781 21.15625 18.4375 C 21.109375 18.503906 21.0625 18.570312 21.015625 18.636719 Z M 9.394531 22.890625 C 9.363281 22.882812 9.332031 22.875 9.304688 22.871094 C 8.886719 22.765625 8.476562 22.640625 8.078125 22.488281 C 8.042969 22.476562 8.011719 22.464844 7.980469 22.453125 C 7.824219 22.390625 7.667969 22.328125 7.515625 22.261719 C 7.453125 22.234375 7.394531 22.207031 7.335938 22.179688 C 7.210938 22.121094 7.089844 22.0625 6.96875 22.003906 C 6.898438 21.964844 6.824219 21.929688 6.753906 21.890625 C 6.652344 21.835938 6.546875 21.777344 6.445312 21.722656 C 6.429688 21.710938 6.414062 21.703125 6.398438 21.695312 L 6.398438 19.199219 L 5.597656 19.199219 L 5.597656 21.183594 C 5.53125 21.136719 5.464844 21.089844 5.398438 21.042969 C 5.359375 21.011719 5.320312 20.984375 5.28125 20.957031 C 5.167969 20.871094 5.054688 20.78125 4.941406 20.691406 C 4.90625 20.660156 4.871094 20.628906 4.832031 20.601562 C 4.71875 20.503906 4.605469 20.40625 4.496094 20.304688 C 4.472656 20.285156 4.449219 20.265625 4.429688 20.246094 C 4.054688 19.902344 3.707031 19.535156 3.382812 19.148438 C 3.375 19.136719 3.363281 19.125 3.355469 19.113281 C 3.261719 19 3.171875 18.882812 3.082031 18.765625 C 3.050781 18.722656 3.015625 18.679688 2.984375 18.636719 C 2.9375 18.570312 2.890625 18.503906 2.84375 18.4375 C 3.132812 16.300781 4.832031 14.671875 6.941406 14.433594 L 8.613281 18.605469 L 10.398438 17.414062 L 10.398438 18.398438 L 10.734375 18.398438 L 10.046875 23.027344 C 10.003906 23.019531 9.957031 23.011719 9.914062 23.003906 C 9.738281 22.96875 9.566406 22.929688 9.394531 22.890625 Z M 10.195312 12.316406 C 8.285156 11.609375 6.800781 8.339844 6.800781 6 C 6.800781 5.949219 6.804688 5.898438 6.808594 5.847656 L 7.101562 5.488281 C 7.761719 4.703125 8.886719 4.476562 9.90625 4.925781 C 10.3125 5.109375 10.75 5.199219 11.199219 5.199219 C 12.386719 5.199219 13.457031 4.554688 14.011719 3.527344 C 15.285156 3.945312 16.421875 4.730469 17.1875 5.726562 C 17.304688 8.164062 15.871094 11.539062 13.828125 12.304688 C 13.445312 12.449219 13.199219 12.800781 13.199219 13.195312 L 13.199219 13.453125 C 13.199219 13.914062 13.527344 14.296875 13.960938 14.382812 L 13.277344 15.199219 L 10.722656 15.199219 L 10.039062 14.382812 C 10.472656 14.296875 10.800781 13.910156 10.800781 13.453125 L 10.800781 13.199219 C 10.800781 12.804688 10.558594 12.449219 10.195312 12.316406 Z M 12.015625 0.800781 C 12.019531 0.800781 12.023438 0.800781 12.027344 0.800781 C 12.226562 0.800781 12.417969 0.8125 12.601562 0.835938 C 14.585938 1.054688 16.25 2.4375 16.902344 4.269531 C 16.054688 3.53125 15.019531 2.964844 13.902344 2.660156 L 13.558594 2.5625 L 13.425781 2.894531 C 13.058594 3.808594 12.183594 4.398438 11.199219 4.398438 C 10.863281 4.398438 10.535156 4.332031 10.230469 4.195312 C 9.121094 3.707031 7.914062 3.839844 7.023438 4.488281 C 7.269531 3.675781 7.710938 2.933594 8.328125 2.320312 C 9.308594 1.339844 10.613281 0.800781 12.015625 0.800781 Z M 13.601562 16.066406 L 14.988281 14.398438 L 16.210938 14.398438 L 15.011719 17.394531 L 13.601562 16.453125 Z M 12.945312 23.15625 C 12.839844 23.164062 12.730469 23.175781 12.621094 23.179688 C 12.417969 23.191406 12.210938 23.199219 12.003906 23.199219 C 11.988281 23.199219 11.976562 23.199219 11.960938 23.199219 C 11.769531 23.199219 11.574219 23.191406 11.382812 23.179688 C 11.277344 23.175781 11.167969 23.164062 11.0625 23.15625 C 10.988281 23.148438 10.914062 23.144531 10.839844 23.136719 L 11.542969 18.398438 L 12.457031 18.398438 L 13.171875 23.136719 C 13.09375 23.140625 13.019531 23.148438 12.945312 23.15625 Z M 12.800781 17.601562 L 11.199219 17.601562 L 11.199219 16 L 12.800781 16 Z M 10.398438 16.066406 L 10.398438 16.453125 L 8.988281 17.394531 L 7.792969 14.398438 L 9.011719 14.398438 Z M 7.992188 1.542969 C 7.914062 1.613281 7.835938 1.679688 7.761719 1.753906 C 6.625 2.886719 6 4.394531 6 6 C 6 8.652344 7.675781 12.238281 9.917969 13.066406 C 9.964844 13.085938 10 13.140625 10 13.199219 L 10 13.453125 C 10 13.535156 9.933594 13.601562 9.855469 13.601562 L 7.257812 13.601562 C 7.21875 13.601562 7.179688 13.605469 7.144531 13.617188 C 4.832031 13.753906 2.890625 15.3125 2.238281 17.476562 C 1.324219 15.855469 0.800781 13.988281 0.800781 12 C 0.800781 7.234375 3.792969 3.160156 7.992188 1.542969 Z M 7.992188 1.542969"/>
</svg>

<svg xmlns="http://www.w3.org/2000/svg" width="32" height="32" viewBox="0 0 24 24">
    <path d="M24 12c0-6.617-5.383-12-12-12S0 5.383 0 12c0 2.457.742 4.742 2.016 6.648v.008l.082.121c.07.106.148.203.222.309.032.039.063.082.094.125.094.125.191.25.293.371.027.035.059.07.086.105.465.555.973 1.06 1.52 1.516l.097.086c.121.094.238.191.363.281l.149.114a11.57 11.57 0 0 0 1.055.687c.12.07.238.14.363.207.07.04.148.074.223.113.128.067.257.133.39.192l.203.094a16.518 16.518 0 0 0 .61.25c.43.164.87.3 1.32.414l.055.011a10.429 10.429 0 0 0 .789.164v.008l.21.031c.047.008.098.012.145.02l.043.008h.024a.435.435 0 0 0 .066.008c.066.011.133.02.195.027.16.02.32.031.48.043l.102.012c.04 0 .078.004.114.007.23.012.46.02.691.02a13.616 13.616 0 0 0 .809-.027l.101-.012a9.81 9.81 0 0 0 .477-.043c.062-.008.129-.016.195-.027.027 0 .05-.004.078-.008.008 0 .016-.004.024-.004l.039-.004c.047-.008.093-.012.136-.02l.227-.03-.004-.009c.004-.003.008-.003.012-.003.054-.008.11-.02.16-.028.203-.039.406-.082.605-.133l.055-.011c.453-.114.89-.254 1.32-.414.051-.02.098-.04.149-.059a11.766 11.766 0 0 0 .664-.285c.133-.063.262-.125.394-.192.075-.039.149-.074.223-.113.121-.066.238-.137.36-.207a10.836 10.836 0 0 0 .699-.437c.12-.082.238-.164.355-.25.05-.04.102-.075.149-.114.125-.09.246-.187.363-.285.035-.027.066-.055.101-.082a12.077 12.077 0 0 0 1.895-1.996c.031-.039.062-.082.094-.125.074-.102.152-.2.222-.305l.082-.12v-.009A11.926 11.926 0 0 0 24 12zm-.8 0c0 1.988-.524 3.855-1.438 5.477a5.446 5.446 0 0 0-4.793-3.856l-.016-.02h-2.808a.148.148 0 0 1-.145-.148v-.258c0-.074.059-.12.11-.14 2.578-.97 4.183-4.985 3.847-7.793a5.977 5.977 0 0 0-1.953-3.719C20.207 3.156 23.199 7.234 23.199 12zm-2.184 6.637c-.032.043-.067.086-.098.129-.09.117-.18.234-.273.347-.008.012-.02.024-.028.035-.324.387-.676.754-1.047 1.098a8.4 8.4 0 0 1-.406.355c-.035.028-.07.06-.105.087-.114.093-.227.183-.34.269-.04.027-.078.055-.117.086-.067.047-.133.094-.204.14V19.2h-.796v2.492c-.016.012-.032.02-.047.028-.106.058-.207.117-.309.172-.07.039-.144.074-.215.113l-.367.176c-.059.027-.117.054-.18.078-.152.07-.308.133-.464.195l-.098.035a10.893 10.893 0 0 1-1.317.403c-.171.039-.343.078-.52.109l-.124.023-.695-4.625h.336v-.984l1.785 1.191 1.672-4.171a4.653 4.653 0 0 1 4.097 4.004l-.14.199zM9.395 22.89a10.893 10.893 0 0 1-1.414-.438c-.157-.062-.313-.125-.465-.191l-.18-.082-.367-.176c-.07-.04-.145-.074-.215-.113-.102-.055-.207-.114-.309-.168-.015-.012-.03-.02-.047-.028V19.2h-.8v1.985l-.2-.141c-.039-.031-.078-.059-.117-.086-.113-.086-.226-.176-.34-.266-.035-.03-.07-.062-.109-.09a12.152 12.152 0 0 1-.336-.296c-.023-.02-.047-.04-.066-.059-.375-.344-.723-.71-1.047-1.098-.008-.011-.02-.023-.028-.035-.093-.113-.183-.23-.273-.347-.031-.043-.066-.086-.098-.13l-.14-.198a4.653 4.653 0 0 1 4.097-4.004l1.672 4.171 1.785-1.19v.983h.336l-.687 4.63-.133-.024a20.271 20.271 0 0 1-.52-.113zm.8-10.575C8.285 11.61 6.801 8.34 6.801 6c0-.05.004-.102.008-.152l.293-.36c.66-.785 1.785-1.011 2.804-.562.406.183.844.273 1.293.273a3.184 3.184 0 0 0 2.813-1.672c1.273.418 2.41 1.203 3.175 2.2.118 2.437-1.316 5.812-3.359 6.578a.953.953 0 0 0-.629.89v.258c0 .461.328.844.762.93l-.684.816h-2.554l-.684-.816a.95.95 0 0 0 .762-.93V13.2a.937.937 0 0 0-.606-.883zM12.015.801h.012c.2 0 .391.011.575.035 1.984.219 3.648 1.601 4.3 3.434a7.678 7.678 0 0 0-3-1.61l-.343-.098-.133.333a2.389 2.389 0 0 1-2.227 1.503c-.336 0-.664-.066-.969-.203-1.109-.488-2.316-.355-3.207.293A5.152 5.152 0 0 1 8.328 2.32 5.168 5.168 0 0 1 12.016.8zm1.587 15.265l1.386-1.668h1.223l-1.2 2.997-1.41-.942zm-.657 7.09c-.105.008-.215.02-.324.024-.203.011-.41.02-.617.02h-.043c-.191 0-.387-.009-.578-.02-.106-.004-.215-.016-.32-.024-.075-.008-.149-.011-.223-.02l.703-4.738h.914l.715 4.739c-.078.004-.152.011-.227.02zm-.144-5.554h-1.602V16h1.602zm-2.403-1.536v.387l-1.41.942-1.195-2.997h1.219zM7.992 1.543c-.078.07-.156.137-.23.21A5.953 5.953 0 0 0 6 6c0 2.652 1.676 6.238 3.918 7.066.047.02.082.075.082.133v.254a.148.148 0 0 1-.145.149H7.258a.361.361 0 0 0-.113.015 5.449 5.449 0 0 0-4.907 3.86A11.115 11.115 0 0 1 .801 12c0-4.766 2.992-8.84 7.191-10.457zm0 0"/>
</svg>
